shared/images/iconfont/kb-iconfont-identity-bitcoin-16.svg

<?xml version="1.0" encoding="UTF-8"?>
<svg width="16px" height="16px" viewBox="0 0 16 16" version="1.1" xmlns="http://www.w3.org/2000/svg" xmlns:xlink="http://www.w3.org/1999/xlink">
    <!-- Generator: sketchtool 41.2 (35397) - http://www.bohemiancoding.com/sketch -->
    <title>EAEAD636-A22F-49C9-8416-F526D4D9F604</title>
    <desc>Created with sketchtool.</desc>
    <defs></defs>
    <g id="Icons" stroke="none" stroke-width="1" fill="none" fill-rule="evenodd">
        <g id="Style-guide---Desktop---Icons-2" transform="translate(-340.000000, -1237.000000)">
            <g id="kb-iconfont-identity-bitcoin-16" transform="translate(340.000000, 1237.000000)">
                <rect id="icon-area" fill="#D8D8D8" opacity="0" x="0" y="0" width="16" height="16"></rect>
                <path d="M4.83489515,12.8763804 L5.32682806,12.8763804 C5.53922046,12.8763804 5.70344139,12.8924375 5.8180311,12.8924375 L5.8180311,15.2024786 L7.22668171,15.2024786 L7.22668171,12.9092246 C7.48870532,12.9252817 7.86604852,12.9252817 8.35725156,12.9252817 L8.35725156,15.2024786 L9.76663204,15.2024786 L9.76663204,12.8924375 C10.2738922,12.8603232 10.7161939,12.810692 11.0935371,12.7450036 C11.4862076,12.6800451 11.8467638,12.5815126 12.2073199,12.4340787 C12.5678761,12.2866448 12.8627439,12.1063667 13.0919233,11.8932444 C13.3378898,11.6801222 13.534225,11.4180986 13.6816589,11.0903866 C13.84515,10.7626746 13.9436825,10.3700041 13.9765267,9.94375957 C14.0582723,9.09200036 13.9276254,8.45336342 13.5670692,7.9942747 C13.2233001,7.53591585 12.6824658,7.22426102 11.9613535,7.04398294 C12.8788011,6.58562409 13.2722014,5.79882338 13.1736689,4.68504057 C13.1247675,4.27558306 13.026235,3.93181392 12.8298997,3.63694612 C12.6496216,3.32529129 12.4036552,3.09611187 12.0759432,2.91583378 C11.7650182,2.7355557 11.4205192,2.5881218 11.0439059,2.50637627 C10.6672926,2.40784372 10.2410481,2.34215535 9.76663204,2.293254 L9.76663204,0 L8.35725156,0 L8.35725156,2.22756563 C8.11201497,2.22756563 7.73467178,2.22756563 7.22668171,2.24435266 L7.22668171,0 L5.8180311,0 L5.8180311,2.293254 C5.62169586,2.293254 5.32682806,2.31004103 4.94948487,2.31004103 L3,2.293254 L3,3.80043717 L4.01598013,3.80043717 C4.49112601,3.80043717 4.75314962,4.01355944 4.83489515,4.42301695 L4.83489515,7.06076997 C4.90058352,7.06076997 4.94948487,7.06076997 4.98232905,7.07682713 L4.83489515,7.07682713 L4.83489515,10.7466174 C4.78599381,11.0582723 4.60571573,11.2057062 4.31084793,11.2057062 L3.2948678,11.2057062 L3,12.8763804 L4.83489515,12.8763804 L4.83489515,12.8763804 Z M7.2595259,8.12565144 C7.30915711,8.12565144 7.45659101,8.12565144 7.70182759,8.10886441 L8.29156319,8.10886441 C8.43899709,8.10886441 8.65211935,8.10886441 8.93092999,8.1417086 C9.19295361,8.15849563 9.42213303,8.17455279 9.60241112,8.22345413 C9.7826892,8.25629831 9.97902444,8.30592953 10.1921467,8.38767505 C10.4213261,8.46942058 10.5855471,8.55116611 10.732981,8.66575582 C10.8636278,8.78107541 10.9782175,8.91172228 11.0606929,9.09200036 C11.1584956,9.25549142 11.2081268,9.45255653 11.2081268,9.6656788 C11.2081268,9.84595688 11.1752827,9.99339078 11.1095943,10.1408247 C11.0606929,10.2714715 10.9782175,10.4028483 10.896472,10.500651 C10.7986693,10.5991835 10.6833497,10.6977161 10.5359158,10.7794616 C10.3724248,10.8612071 10.2410481,10.9268955 10.0936142,10.9597397 C9.94618026,11.008641 9.7826892,11.0582723 9.58635396,11.0903866 C9.38928885,11.1400178 9.20901076,11.1560749 9.06157686,11.172862 C8.91414297,11.1889191 8.73386488,11.2057062 8.53752964,11.2057062 C8.32440737,11.2217633 8.16091632,11.2217633 8.0463266,11.2217633 L7.60402491,11.2217633 L7.2595259,11.2217633 L7.2595259,8.12565144 L7.2595259,8.12565144 Z M7.2595259,3.89896973 L7.62008207,3.89896973 C7.81641731,3.89896973 7.99669539,3.89896973 8.12807213,3.8821827 C8.258719,3.8821827 8.42293993,3.89896973 8.65211935,3.91502689 C8.86524162,3.93181392 9.06157686,3.94787107 9.20901076,3.98071526 C9.37323169,4.01355944 9.53672275,4.06246079 9.71700083,4.12814916 C9.89727891,4.20989468 10.0447128,4.29164021 10.1593025,4.39017277 C10.2578351,4.48870532 10.3556378,4.61935219 10.4381132,4.78357312 C10.5030717,4.93100702 10.5527029,5.1112851 10.5527029,5.32440737 C10.5527029,5.48789843 10.5198587,5.65138948 10.4709573,5.78276622 C10.405269,5.93020012 10.3235235,6.04478984 10.2249909,6.14332239 C10.1104012,6.24112508 9.99581147,6.32360048 9.88122176,6.38928885 C9.76663204,6.45424735 9.61846827,6.51993572 9.43892006,6.5527799 C9.25864198,6.60168124 9.09442105,6.63452543 8.96377418,6.66736962 C8.83239744,6.68415664 8.66890638,6.7002138 8.45578411,6.71627096 C8.258719,6.71627096 8.11201497,6.73305799 8.01348242,6.73305799 L7.57118072,6.73305799 C7.39090264,6.73305799 7.29237008,6.71627096 7.2595259,6.71627096 L7.2595259,3.89896973 L7.2595259,3.89896973 Z" id="Icon-bitcoin" fill="#000000"></path>
            </g>
        </g>
    </g>
</svg>

<svg xmlns="http://www.w3.org/2000/svg" width="16" height="16" viewBox="0 0 16 16">
    <path fill="#000" fill-rule="evenodd" d="M4.835 12.876h.492c.212 0 .376.016.491.016v2.31h1.409V12.91c.262.016.639.016 1.13.016v2.277h1.41v-2.31c.507-.032.95-.081 1.327-.147a5.077 5.077 0 0 0 1.113-.31c.36-.148.656-.329.885-.542.246-.213.442-.475.59-.803.163-.327.262-.72.295-1.146.081-.852-.05-1.49-.41-1.95-.344-.458-.885-.77-1.606-.95.918-.458 1.311-1.245 1.213-2.359-.05-.41-.148-.753-.344-1.048a1.88 1.88 0 0 0-.754-.721 3.569 3.569 0 0 0-1.032-.41 8.582 8.582 0 0 0-1.277-.213V0h-1.41v2.228c-.245 0-.622 0-1.13.016V0H5.818v2.293c-.196 0-.491.017-.869.017L3 2.293V3.8h1.016c.475 0 .737.214.819.623v2.638a.37.37 0 0 1 .147.016h-.147v3.67c-.049.311-.23.459-.524.459H3.295L3 12.876h1.835zm2.425-4.75c.05 0 .197 0 .442-.017h.59c.147 0 .36 0 .639.033.262.016.491.033.671.081.18.033.377.083.59.165.23.081.394.163.541.278.13.115.245.246.328.426.097.163.147.36.147.574 0 .18-.033.327-.098.475-.05.13-.132.262-.214.36a1.591 1.591 0 0 1-.36.278c-.164.082-.295.148-.442.18-.148.05-.311.1-.508.131-.197.05-.377.066-.524.083a4.797 4.797 0 0 1-.524.033c-.214.016-.377.016-.492.016H7.26V8.126zm0-4.227h.36c.196 0 .377 0 .508-.017.13 0 .295.017.524.033.213.017.41.033.557.066.164.033.328.081.508.147.18.082.328.164.442.262.099.099.197.23.28.394a1.329 1.329 0 0 1 .032.999 1.17 1.17 0 0 1-.246.36c-.115.098-.23.18-.344.246a1.41 1.41 0 0 1-.442.164c-.18.049-.345.082-.475.114a10 10 0 0 1-.508.05c-.197 0-.344.016-.443.016h-.442c-.18 0-.279-.017-.311-.017V3.9z"/>
</svg>
